src/16/actions/edit-clone-unlink.svg

<svg xmlns="http://www.w3.org/2000/svg" viewBox="0 0 16 16"><path d="M2 2v11h3v1h2v-1H6V5h6v1h1V4h-1V2H2zm1 1h8v1H5v8H3V3zm8 4a2 2 0 0 0-2 2v1h1V9a1 1 0 0 1 1-1 1 1 0 0 1 1 1v2H8v3h6v-3h-1V9a2 2 0 0 0-2-2zm-2 5h4v1H9v-1z" fill="currentColor" color="#5d656b"/></svg>

<svg xmlns="http://www.w3.org/2000/svg" viewBox="0 0 16 16">
  <defs id="defs3051">
    <style type="text/css" id="current-color-scheme">
      .ColorScheme-Text {
        color:#5d656b;
      }
      </style>
  </defs>
 <path style="fill:currentColor;fill-opacity:1;stroke:none" 
     d="M 2 2 L 2 13 L 5 13 L 5 14 L 7 14 L 7 13 L 6 13 L 6 5 L 12 5 L 12 6 L 13 6 L 13 4 L 12 4 L 12 2 L 2.7851562 2 L 2 2 z M 3 3 L 11 3 L 11 4 L 5 4 L 5 12 L 3 12 L 3 3 z M 11 7 A 2 2 0 0 0 9 9 L 9 10 L 10 10 L 10 9 A 1 1 0 0 1 11 8 A 1 1 0 0 1 12 9 L 12 11 L 8 11 L 8 14 L 14 14 L 14 11 L 13 11 L 13 9 A 2 2 0 0 0 11 7 z M 9 12 L 13 12 L 13 13 L 9 13 L 9 12 z "
     class="ColorScheme-Text"
     />
</svg>
